X: 36
T: Captain Campbell
T: Strathspey, A Dorian
L: 1/16
M: 2/2
K: A Dorian
|: E1A3A3B1 c3A1B3G1| D1G3G3A1 B3d1 c1B1A1G1| E1A3A3B1 c3B1c1e3| d1B3g3B1 A4A3G1:| 
A1a3a3g1 e3d1c3e1| d3e1g3e1 d1c1B1A1 G3B1| A1a3a3g1 e3d1c3e1| d1B3g3B1 A4A3B1| 
A1a3a3g1 e3d1c3e1| d3e1g3e1 d1c1B1A1 G3B1| c1A3d3B1 e3d1c3e1| d1B3g3B1 A8||
